X: 474
T: A Wet Day In Westport
R: reel
M: 4/4
K: Dmajor
|:B,EEF E2B,d|BAFB AFEF|DA, (3A,B,A, DEFA|dBAF BFAF|
(3EFE B,E EDB,A,|B,BdA BAFE|DEFA dBAF|1 DEFD B,EED:|2 DEFD B,EEe||
|:Beef (3efe Be|edBe dBAF|ADED A,DBc|(3ded fd edBA|
Beef (3efe Be|edBe dBAF|DEFA dBAF|1 DEFD B,EEe:|2 DEFD B,EED||

